Origami/22x22/apps/riot-web.svg

<svg width="22" height="22" version="1.1" viewBox="0 0 22 22" xmlns="http://www.w3.org/2000/svg">
 <path d="m5.5 1.4995a2.5 2.5 0 0 0 -2.5 2.5 2.5 2.5 0 0 0 2.5 2.5 2.5 2.5 0 0 0 2.5 -2.5 2.5 2.5 0 0 0 -2.5 -2.5zm2.4385 0c0.6529 0.6372 1.0615 1.5239 1.0615 2.5 0 1.9212-1.5788 3.5-3.5 3.5-0.9761 0-1.8628-0.4086-2.5-1.0615v12.562c0 1.5 1 2.5 2.5176 2.5 1.4824 0 2.4824-1 2.4824-2.5v-3.5h1.7041l-1.0009-1.401c-0.4547-0.605-0.7017-1.341-0.7031-2.097v-2e-3c0-1.9212 1.5788-3.5 3.5-3.5h1e-3c1.1003 0.0015 2.1385 0.52146 2.7979 1.4023l0.0127 0.01856 2.6436 3.7021c1.306-1.339 2.044-3.229 2.045-5.123-2e-3 -3.5-2.5-7-6.5-7zm3.5615 8c-1.3807 0-2.5 1.1193-2.5 2.5 1e-3 0.54048 0.1771 1.0661 0.50195 1.498l5 7c0.471 0.63 1.211 1.001 1.998 1.002 1.381 0 2.5-1.119 2.5-2.5-1e-3 -0.54-0.177-1.066-0.502-1.498l-5-7c-0.471-0.63-1.211-1.001-1.998-1.002z" style="opacity:.2"/>
 <path d="m7.9385 0.9995c0.6529 0.6372 1.0615 1.5239 1.0615 2.5 0 1.9212-1.5788 3.5-3.5 3.5-0.9761 0-1.8628-0.4086-2.5-1.0615v12.562c0 1.5 1 2.5 2.5176 2.5 1.4824 0 2.4824-1 2.4824-2.5v-3.5h1.7041l-1.0009-1.401c-0.4547-0.605-0.7017-1.341-0.7031-2.097v-2e-3c0-1.921 1.579-3.5 3.5-3.5h1e-3c1.1003 0.0015 2.1385 0.52146 2.7979 1.4023l0.0127 0.01856 2.6436 3.7021c1.306-1.339 2.044-3.229 2.045-5.123-2e-3 -3.5-2.5-7-6.5-7z" style="fill:#3eb07b"/>
 <circle cx="5.5" cy="3.499" r="2.5" style="fill:#764d80"/>
 <path d="m11.5 8.9995c-1.3807 0-2.5 1.1193-2.5 2.5 1e-3 0.54048 0.1771 1.0661 0.50195 1.498l5 7c0.471 0.63 1.211 1.001 1.998 1.002 1.381 0 2.5-1.119 2.5-2.5-1e-3 -0.54-0.177-1.066-0.502-1.498l-5-7c-0.471-0.63-1.211-1.001-1.998-1.002z" style="fill:#764d80"/>
 <path d="m7.9394531 0.9995c0.1565816 0.1528164 0.295662 0.3206916 0.421875 0.5h4.1386719c3.899554 0 6.364734 3.3263696 6.488281 6.7363281 0.002589-0.0788632 0.011677-0.1574114 0.011719-0.2363281-2e-3 -3.5-2.5-7-6.5-7h-4.5605469zm1.0351563 2.7519531c-0.1330463 1.8031748-1.6396827 3.2480469-3.4746094 3.2480469-0.9761 0-1.8628-0.4076469-2.5-1.0605469v0.4980469c0.6372 0.6529 1.5239 1.0625 2.5 1.0625 1.9212 0 3.5-1.5788 3.5-3.5 0-0.084892-0.0193175-0.1646126-0.0253906-0.2480469zm-0.9511719 8.0253909c-0.0049005 0.075113-0.0234375 0.146388-0.0234375 0.222656v2e-3c0.0014 0.756 0.248425 1.492656 0.703125 2.097656l0.642578 0.900344h0.357422l-1-1.400391c-0.3990384-0.530939-0.6261883-1.164567-0.6796875-1.822265z" style="fill:#ffffff;opacity:.1"/>
 <path d="M 5.5,0.9995 A 2.5,2.5 0 0 0 3,3.4995 2.5,2.5 0 0 0 3.0136719,3.7377812 2.5,2.5 0 0 1 5.5,1.4995 2.5,2.5 0 0 1 7.9863281,3.7612188 2.5,2.5 0 0 0 8,3.4995 2.5,2.5 0 0 0 5.5,0.9995 Z" style="fill:#ffffff;opacity:.1"/>
 <path d="m11.5 8.9995c-1.3807 0-2.5 1.1193-2.5 2.5 1.71e-4 0.0923 0.01319 0.182399 0.02344 0.273438 0.11621-1.272786 1.173478-2.273438 2.47656-2.273438 0.787 1e-3 1.527047 0.371953 1.998047 1.001953l5 7c0.269375 0.358062 0.428667 0.780993 0.478515 1.222656 0.006805-0.075196 0.023438-0.147636 0.023438-0.224609-1e-3 -0.54-0.176953-1.066047-0.501953-1.498047l-5-7c-0.471-0.63-1.211047-1.000953-1.998047-1.001953z" style="fill:#ffffff;opacity:.1"/>
</svg>

<svg xmlns="http://www.w3.org/2000/svg" width="22" height="22" version="1.1" viewBox="0 0 22 22">
 <path style="opacity:0.2" d="m 5.5,1.4995 a 2.5,2.5 0 0 0 -2.5,2.5 2.5,2.5 0 0 0 2.5,2.5 2.5,2.5 0 0 0 2.5,-2.5 2.5,2.5 0 0 0 -2.5,-2.5 z m 2.4385,0 C 8.5914,2.1367 9,3.0234 9,3.9995 9,5.9207 7.4212,7.4995 5.5,7.4995 4.5239,7.4995 3.6372,7.0909 3,6.438 L 3,19 c 0,1.5 1,2.5 2.5176,2.5 C 7,21.5 8,20.5 8,19 l 0,-3.5 1.7041,0 -1.0009,-1.401 C 8.2485,13.494 8.0015,12.758 8.0001,12.002 l 0,-0.002 c 0,-1.9212 1.5788,-3.5 3.5,-3.5 l 10e-4,0 c 1.1003,0.0015 2.1385,0.52146 2.7979,1.4023 l 0.0127,0.01856 2.6436,3.7021 c 1.306,-1.339 2.044,-3.229 2.045,-5.123 -0.002,-3.5 -2.5,-7 -6.5,-7 z m 3.5615,8 c -1.3807,0 -2.5,1.1193 -2.5,2.5 10e-4,0.54048 0.1771,1.0661 0.50195,1.498 l 5,7 c 0.471,0.63 1.211,1.001 1.998,1.002 1.381,0 2.5,-1.119 2.5,-2.5 -10e-4,-0.54 -0.177,-1.066 -0.502,-1.498 l -5,-7 c -0.471,-0.63 -1.211,-1.001 -1.998,-1.002 z"/>
 <path style="fill:#3eb07b" d="M 7.9385,0.9995 C 8.5914,1.6367 9,2.5234 9,3.4995 9,5.4207 7.4212,6.9995 5.5,6.9995 4.5239,6.9995 3.6372,6.5909 3,5.938 L 3,18.5 C 3,20 4,21 5.5176,21 7,21 8,20 8,18.5 L 8,15 9.7041,15 8.7032,13.599 C 8.2485,12.994 8.0015,12.258 8.0001,11.502 l 0,-0.002 c 0,-1.921 1.579,-3.5 3.5,-3.5 l 10e-4,0 c 1.1003,0.0015 2.1385,0.52146 2.7979,1.4023 l 0.0127,0.01856 2.6436,3.7021 c 1.306,-1.339 2.044,-3.229 2.045,-5.123 -0.002,-3.5 -2.5,-7 -6.5,-7 z"/>
 <circle style="fill:#764d80" cx="5.5" cy="3.499" r="2.5"/>
 <path style="fill:#764d80" d="m 11.5,8.9995 c -1.3807,0 -2.5,1.1193 -2.5,2.5 10e-4,0.54048 0.1771,1.0661 0.50195,1.498 l 5,7 c 0.471,0.63 1.211,1.001 1.998,1.002 1.381,0 2.5,-1.119 2.5,-2.5 -10e-4,-0.54 -0.177,-1.066 -0.502,-1.498 l -5,-7 c -0.471,-0.63 -1.211,-1.001 -1.998,-1.002 z"/>
 <path style="opacity:0.1;fill:#ffffff" d="m 7.9394531,0.9995 c 0.1565816,0.1528164 0.295662,0.3206916 0.421875,0.5 l 4.1386719,0 c 3.899554,0 6.364734,3.3263696 6.488281,6.7363281 C 18.99087,8.1569649 18.999958,8.0784167 19,7.9995 c -0.002,-3.5 -2.5,-7 -6.5,-7 l -4.5605469,0 z M 8.9746094,3.7514531 C 8.8415631,5.5546279 7.3349267,6.9995 5.5,6.9995 4.5239,6.9995 3.6372,6.5918531 3,5.9389531 L 3,6.437 C 3.6372,7.0899 4.5239,7.4995 5.5,7.4995 7.4212,7.4995 9,5.9207 9,3.9995 9,3.914608 8.9806825,3.8348874 8.9746094,3.7514531 Z M 8.0234375,11.776844 C 8.018537,11.851957 8,11.923232 8,11.9995 l 0,0.002 c 0.0014,0.756 0.248425,1.492656 0.703125,2.097656 l 0.642578,0.900344 0.357422,0 -1,-1.400391 C 8.3040866,13.06817 8.0769367,12.434542 8.0234375,11.776844 Z"/>
 <path style="opacity:0.1;fill:#ffffff" d="M 5.5,0.9995 A 2.5,2.5 0 0 0 3,3.4995 2.5,2.5 0 0 0 3.0136719,3.7377812 2.5,2.5 0 0 1 5.5,1.4995 2.5,2.5 0 0 1 7.9863281,3.7612188 2.5,2.5 0 0 0 8,3.4995 2.5,2.5 0 0 0 5.5,0.9995 Z"/>
 <path style="opacity:0.1;fill:#ffffff" d="m 11.5,8.9995 c -1.3807,0 -2.5,1.1193 -2.5,2.5 1.71e-4,0.0923 0.01319,0.182399 0.02344,0.273438 C 9.13965,10.500152 10.196918,9.4995 11.5,9.4995 c 0.787,0.001 1.527047,0.371953 1.998047,1.001953 l 5,7 c 0.269375,0.358062 0.428667,0.780993 0.478515,1.222656 C 18.983367,18.648913 19,18.576473 19,18.4995 c -0.001,-0.54 -0.176953,-1.066047 -0.501953,-1.498047 l -5,-7 C 13.027047,9.371453 12.287,9.0005 11.5,8.9995 Z"/>
</svg>
